X: 1
T: Ambee Dageets  [D]
O: trad Armenian
Z: 2009 John Chambers <jc:trillian.mit.edu>
S: PDF MS of unknown origin (from Steve Gruverman)
%Q: 1/4=76
M: 2/4
L: 1/16
K: Dphr^F
|:"Gm"B3B B2B2 | "D"AGFG A4 | "D"A3A A2A2 | "Gm"GFEF G4 |
| "Eb"G3G G2G2 | "D"FEDE F4 |"Cm"[GE3]FG[AE] [BE2]A[GE2]F | "D"AGFE D4 :|
|:"D"D2FG A2A2 | "D"A2Ac B2AG | "D"A2Ac B2AG | "D"AGGF "Gm"G4 :|
|:"D"FGAB AGFE | "D"FGAB AGFE | "D"D3E "Cm"F3G |"Eb"FEED "D"D4 :|


